X: 1
T: Peter Flanagan's Stoney Steps
M: 4/4
L: 1/8
R: reel
K: Dmaj
FAAF A2FA|ABde fded|FAAF A2FA|BdAF EFD2:|
~f3e d2dB|ABde fa~a2|~f3e d2dB|AFdF EFD2|
~f3e d2dB|ABde fa~a2|bfaf efdB|AFdF EFD2||
